site/assets/svgs/solid/cart-flatbed-suitcase.svg

<svg xmlns="http://www.w3.org/2000/svg" viewBox="0 0 640 512"><!--! Font Awesome Free 6.6.0 by @fontawesome - https://fontawesome.com License - https://fontawesome.com/license/free (Icons: CC BY 4.0, Fonts: SIL OFL 1.1, Code: MIT License) Copyright 2024 Fonticons, Inc. --><path d="M0 32C0 14.3 14.3 0 32 0L48 0c44.2 0 80 35.8 80 80l0 288c0 8.8 7.2 16 16 16l464 0c17.7 0 32 14.3 32 32s-14.3 32-32 32l-66.7 0c1.8 5 2.7 10.4 2.7 16c0 26.5-21.5 48-48 48s-48-21.5-48-48c0-5.6 1-11 2.7-16l-197.5 0c1.8 5 2.7 10.4 2.7 16c0 26.5-21.5 48-48 48s-48-21.5-48-48c0-5.6 1-11 2.7-16L144 448c-44.2 0-80-35.8-80-80L64 80c0-8.8-7.2-16-16-16L32 64C14.3 64 0 49.7 0 32zM432 96l0-40c0-4.4-3.6-8-8-8l-80 0c-4.4 0-8 3.6-8 8l0 40 96 0zM288 96l0-40c0-30.9 25.1-56 56-56l80 0c30.9 0 56 25.1 56 56l0 40 0 224-192 0 0-224zM512 320l0-224 16 0c26.5 0 48 21.5 48 48l0 128c0 26.5-21.5 48-48 48l-16 0zM240 96l16 0 0 224-16 0c-26.5 0-48-21.5-48-48l0-128c0-26.5 21.5-48 48-48z"/></svg>

<svg xmlns="http://www.w3.org/2000/svg" viewBox="0 0 640 512"><!--! Font Awesome Free 6.2.1 by @fontawesome - https://fontawesome.com License - https://fontawesome.com/license/free (Icons: CC BY 4.0, Fonts: SIL OFL 1.1, Code: MIT License) Copyright 2022 Fonticons, Inc. --><path d="M0 32C0 14.3 14.3 0 32 0H48c44.2 0 80 35.8 80 80V368c0 8.8 7.2 16 16 16H608c17.7 0 32 14.3 32 32s-14.3 32-32 32H541.3c1.8 5 2.7 10.4 2.7 16c0 26.5-21.5 48-48 48s-48-21.5-48-48c0-5.6 1-11 2.7-16H253.3c1.8 5 2.7 10.4 2.7 16c0 26.5-21.5 48-48 48s-48-21.5-48-48c0-5.6 1-11 2.7-16H144c-44.2 0-80-35.8-80-80V80c0-8.8-7.2-16-16-16H32C14.3 64 0 49.7 0 32zM432 96V56c0-4.4-3.6-8-8-8H344c-4.4 0-8 3.6-8 8V96h96zM288 96V56c0-30.9 25.1-56 56-56h80c30.9 0 56 25.1 56 56V96 320H288V96zM512 320V96h16c26.5 0 48 21.5 48 48V272c0 26.5-21.5 48-48 48H512zM240 96h16V320H240c-26.5 0-48-21.5-48-48V144c0-26.5 21.5-48 48-48z"/></svg>
